X: 9
T:Shepherds' Hey, Brackley
M:2/2
L:1/8
R:Hornpipe
A:Brackley
P:A(AB)5
K:G
P:A
|:c>de>c c2c2|B>cd>B A4|c>de>c c2B>c|d2D2 G4:|
P:B
|:B2 G2  c4  |B2 G2  A4|B>cd>B c2B>c|d2D2 G4:|
